X:1
T:Miserere
T:Corsican tradition
%%score [ 1 2 3 ]
L:1/8
Q:1/4=40
M:4/4
K:F
V:1 treble nm="1"
V:2 treble nm="2"
V:3 bass nm="3"
V:1
 z9 | z23/2 || z4 A4 | A/ B4{AB} !breath!A4 | z3 c B{AB}AA A2 | %5
w: ||et|se- cun- dum|tu- * * di- nem|
 z2 z2 c4 cc c4{!fermata!B!fermata!c!fermata!d!fermata!c!fermata!B!fermata!c!fermata!B} !fermata!A4 || %6
w: o- num tu- a- rum.|
 z2 z A B2{AB} A2 | %7
w: De- le _|
 z4 z c4{!fermata!B!fermata!c!fermata!d!fermata!c!fermata!B!fermata!c!fermata!B!fermata!A!fermata!B} !fermata!A4 || %8
w: me- am|
 z17 | z2 A3 A A3 A B2{!fermata!A!fermata!B} !fermata!A2 | z4 c8{BcdcBABA} A !fermata!A2 | %11
w: |Re- qui- em ae- ter- nam|Do- mi- ne|
 z4 A3 A B3 A A4 | z4 c4{Bcdc} B4{cBcB} A4 |] %13
w: lux per- pe- tu- a|e- * i.|
V:2
 F>F F/F/ F E D2{ED} C2 | F/F/F/F/ F2 F/F/F/FE/E/ D2{EDC} C2 || (C2 F6) | F/ G4 !breath!F4 | %4
w: Mi- se- re- re me- i, De- us,-|se- cun- dum mag- nam mi- se- ri- cor- di- am tu- am:|et _|se- cun- dum|
 (CF)G G2{FG} FF F2 | CF FA A4{BAGABA} GF{F} G4 !fermata!F4 || (C>F) F2 G2{FG} F2 | %7
w: mul- * ti- tu- * di- nem|mi- se- ra- ti- o- num tu- a- rum.|De- * le _ _|
 CCFF G G4{!fermata!F!fermata!G!fermata!A!fermata!G!fermata!F!fermata!G!fermata!A!fermata!G} !fermata!F4 || %8
w: in- i- qui- ta- tem me- am|
 F>F FE{DE} D2 !breath!C2 FFFED{EDCDEF}FF F2 | %9
w: Re- qui- em ae- ter- nam do- na e- i Do- * mi- ne.|
 (C2 F3) F F3 F G2{!fermata!F!fermata!G} !fermata!F2 | %10
w: Re- * qui- em ae- ter- nam|
 CFF{G}A A4{BAGABAGF} G4{FGAG} F !fermata!F2 | (C3 F) F3 F G3{FG} F F4 | %12
w: do- na e- i Do- * mi- ne|et _ lux per- pe- tu- a|
 (CF){G} GG G4{AGFGAG} F4 F4 |] %13
w: lu- * ce- at e- * i.|
V:3
 z9 | z23/2 || z2 F,,6 | F,,/ F,,4 !breath!F,,4 | z3 C,2 C,2 F,,2 | %5
w: ||et|se- cun- dum|tu- di- nem|
 z2 z2 F,4 F,F, C,4 !fermata!F,,4 || z2 F,,2 F,,4 | z4 z C,4 !fermata!F,,4 || z17 | %9
w: o- num tu- a- rum.|De- le|me- am||
 z2 F,,3 F,, F,,3 F,, F,,2 !fermata!F,,2 | z4 !~(!F,4 !~)!C,4 C, !fermata!F,,2 | %11
w: Re- qui- em ae- ter- nam|Do- * mi- ne|
 z4 F,,3 F,, G,,3{F,,G,,} F,, F,,4 | z4 C,8 F,,4 |] %13
w: lux per- pe- tu- a|e- i.|

